!!!!SEGMENT: pl-kk--kk-i-382--021-001_anonim--nro-7-kyrie.krn
!!!cenid: 18xx:1491
!!!COM: Anonim
!!!COM-rismid: pe30004985
!!!CDT:
!!!CNT:
!!!OPR: Nro 7
!!!OTL: Kyrie
!!!OMV: 002
!!!PDT:
!!!AGN: Sacred
!!!SMS-siglum: PL-Kk
!!!SMS-shelfmark: Kk.I.382
!!!SMS-shelfwork: 007-002 M
!!!SMS-variant:
!!!SMS-altvar:
!!!NIFC-rismid: 1001139138
!!!URL-scan: http://repozytorium.nifc.pl/skany/pl-kk-nut--i-382
!!!ONB-nifc: UWAGA: obsada: S (T 1), A (B 1), T 2, B 2; S (T 1): skan 0020; A (B 1): skan 0165; T 2: skan 0091; B 2: skan 0237
**kern	**text	**dynam	**kern	**text	**kern	**text	**kern	**text
*part4	*part4	*part4	*part3	*part3	*part2	*part2	*part1	*part1
*staff4	*staff4	*	*staff3	*staff3	*staff2	*staff2	*staff1	*staff1
*I"Basso II	*	*	*I"Tenore II	*	*I"Alto vel Basso I	*	*I"Soprano vel Tenore I.	*
*I'B 2	*	*	*I'T 2	*	*I'A (B 1)	*	*I'S (T 1)	*
*clefF4	*	*	*clefC4	*	*clefC3	*	*clefC1	*
*k[b-]	*	*	*k[b-]	*	*k[b-]	*	*k[b-]	*
*F:	*	*	*F:	*	*F:	*	*F:	*
*M3/2	*	*	*M3/4	*	*M3/2	*	*M3/4	*
=1	=1	=1	=1	=1	=1	=1	=1	=1
*2\right	*	*	*2\right	*	*2\right	*	*2\right	*
*	*	*	*rscale:1/2	*	*	*	*rscale:1/2	*
!LO:TX:a:i:t=Solo.	!	!	!LO:TX:a:i:t=Kyrie \nin F.	!	!	!	!	!
!LO:TX:a:i:t=in F. \nKyrie	!	!	!LO:TX:t=P:problem:w źródle metrum 3/4, ale w innych głosach 3/2; zastosowano rscale	!	!	!	!LO:TX:t=P:problem:w źródle metrum 3/4, ale w innych głosach 3/2; zastosowano rscale	!
!LO:TX:t=P:problem:all\right:global	!	!	!LO:TX:t=P:problem:all\right:global	!	!LO:TX:t=P:problem:all\right:global	!	!LO:TX:t=P:problem:all\right:global	!
!LO:TX:a:t=P:problem:w źródle "in F. Kyrie" zapisane przed pierwszym taktem, przed pięciolinią i częściowo na pięciolinii	!	!	!LO:TX:a:t=P:problem:w źródle ta adnotacja zapisana przed pierwszym taktem, przed pięciolinią	!	!LO:TX:a:t=P:problem:w źródle ta adnotacja zapisana przed pierwszym taktem, przed pięciolinią	!	!LO:TX:a:t=P:problem:w źródle ta adnotacja zapisana przed pierwszym taktem, na pięciolinii	!
!	!	!	!	!	!LO:TX:a:i:t=Kyrie.	!	!LO:TX:a:i:t=Kyrie.	!
!LO:TX:a:t=P:problem:w źródle "p." zapisane na pięciolinii	!	!	!	!	!	!	!	!
!	!	!LO:DY:rj	!	!	!	!	!	!
!	!	!LO:DY:b:t=p.	!	!	!	!	!	!
4c\	Ky-	p	4c\	Ky-	4a\	Ky-	4cc\	Ky-
4B-\	-ri-	.	4B-\	-ri-	4g\	-ri-	4b-\	-ri-
4A\	-e	.	4A\	-e	4f\	-e	4a\	-e
4B-\	e-	.	4B-\	e-	4g\	e-	4b-\	e-
4A\	-lei-	.	4A\	-lei-	4f\	-le-	4a\	-le-
4G\	-son,	.	4G/	-son	4e\	-i-	4g\	-i-
=2	=2	=2	=2	=2	=2	=2	=2	=2
!LO:TX:a:t=P:problem:w źródle "f." zapisane na pięciolinii	!	!	!	!	!	!	!	!
!	!	!LO:DY:rj	!	!	!	!	!	!
!	!	!LO:DY:b:t=f.	!	!	!	!	!	!
4F\	Ky-	f	4A\	Ky-	2f\	-son	2a\	-son
4G\	-ri-	.	4B-\	-ri-	.	.	.	.
4A\	-e	.	4c\	-e	2r	.	2r	.
4B-\	e-	.	4d\	e-	.	.	.	.
4A\	-le-	.	4c\	-le-	2r	.	2r	.
4G\	-i-	.	4B-\	-i-	.	.	.	.
=3	=3	=3	=3	=3	=3	=3	=3	=3
2F\	-son	.	2A\	-son	4f\	Ky-	4a/	Ky-
.	.	.	.	.	4e\	-ri-	4g/	-ri-
2r	.	.	2r	.	4f\	-e	4a/	-e
.	.	.	.	.	4e\	e-	4g/	e-
2r	.	.	2r	.	4d\	-le-	4f/	-le-
.	.	.	.	.	4c\	-i-	4e/	-i-
=4	=4	=4	=4	=4	=4	=4	=4	=4
4G\	Ky-	.	4Bn\	Ky-	2Bn/	-son	2d/	-son.
4A\	-ri-	.	4c\	-ri-	.	.	.	.
4Bn\	-e	.	4d\	-e	2r	.	2r	.
4c\	e-	.	4e\	e-	.	.	.	.
!	!	!	!LO:LB:g=original	!	!	!	!	!
4d\	-le-	.	4f\	-le-	2r	.	2r	.
4c\	-i-	.	4e\	-i-	.	.	.	.
!LO:LB:g=original	!	!	!	!	!LO:LB:g=original	!	!LO:LB:g=original	!
=5	=5	=5	=5	=5	=5	=5	=5	=5
2Bn\	-son	.	2d\	-son	2r	.	2r	.
2G\	Ky-	.	2Bn\	Ky-	2f\	Ky-	2dd\	Ky-
2B\	-ri-	.	2G/	-ri-	2f\	-ri-	2dd\	-ri-
=6	=6	=6	=6	=6	=6	=6	=6	=6
2.c\	-e	.	2.G/	-e	(>2.g\	-e	(>2.ee\	-e
4G\	.	.	4Bn/	.	4f\	.	4dd\	.
2E\	e-	.	2G/	e-	2e\)	.	2cc\)	.
=7	=7	=7	=7	=7	=7	=7	=7	=7
2F\	-le-	.	2A/	-le-	2f\	e-	2dd\	e-
1G	-i-	.	1G	-i-	2e\	-le-	2cc\	-le-
.	.	.	.	.	2d\	-i-	2bn\	-i-
=8	=8	=8	=8	=8	=8	=8	=8	=8
2C/	-son	.	2G/	-son	2e\	-son	2cc\	-son
2F\	Ky-	.	2A/	e-	2f\	Ky-	2cc\	Ky-
2F\	-ri-	.	2F/	-lei-	2a\	-ri-	2cc\	-ri-
=9	=9	=9	=9	=9	=9	=9	=9	=9
2F\	-e	.	2F/	-son	4b-\	-e	4dd\	-e
.	.	.	.	.	4a\	e-	4cc\	e-
2F\	e-	.	2r	.	(>4b-\	-le-	(>4dd\L	-le-
.	.	.	.	.	4a\)	.	4cc\)J	.
4B-X\	-le-	.	2r	.	(>4g\	-i-	(>4b-X\L	-i-
4Bn\	-i-	.	.	.	4f\)	.	4a\)J	.
!	!	!	!	!	!LO:LB:g=original	!	!	!
=10	=10	=10	=10	=10	=10	=10	=10	=10
2c\	-son	.	2r	.	2e\	-son	2g\	-son
2C/	Ky-	.	2B-X\	Ky-	2e\	Ky-	2g\	Ky-
2E\	-ri-	.	2c\	-ri-	2g\	-ri-	2b-X\	-ri-
!LO:LB:g=original	!	!	!LO:LB:g=original	!	!	!	!LO:LB:g=original	!
=11	=11	=11	=11	=11	=11	=11	=11	=11
2F\	-e	.	1c	-e	(>2f\	-e	(>2a\	-e
2B-\	.	.	.	.	2e\	.	2g\)	.
2A\	.	.	2c\	e-	2f\)	.	2a\	e-
=12	=12	=12	=12	=12	=12	=12	=12	=12
2B-\	e-	.	2d\	-le-	2g\	e-	(>2b-\	-le-
2c\	-le-	.	1c	-i-	2f\	-le-	2a\)	.
2C/	-i-	.	.	.	2e\	-i-	2g\	-i-
=13	=13	=13	=13	=13	=13	=13	=13	=13
1.F	-son.	.	1.c	-son.	1.f	-son.	1.a	-son.
==14	==14	==14	==14	==14	==14	==14	==14	==14
*M4/4	*	*	*M4/4	*	*M4/4	*	*M4/4	*
*met(C.)	*	*	*met(C.)	*	*met(C.)	*	*met(C.)	*
*	*	*	*rscale:1	*	*	*	*rscale:1	*
(>4F\	Chri-	.	4F/	Chri-	(>4f\	Chri-	(>4a\	Chri-
4E\)	.	.	4E/	.	4g\)	.	4b-X\)	.
4F\	-ste	.	4F/	-ste	4a\	-ste	4cc\	-ste
4F\	e-	.	4F/	e-	4b-\	e-	4dd\	e-
=15	=15	=15	=15	=15	=15	=15	=15	=15
1F	-le-	.	1F	-le-	4a\	-le-	4cc\	-le-
.	.	.	.	.	4g\	-i-	4b-\	-i-
.	.	.	.	.	4f\	-son	4a\	-son
.	.	.	.	.	4a\	e-	4cc\	e-
!	!	!	!	!	!LO:LB:g=original	!	!	!
=16	=16	=16	=16	=16	=16	=16	=16	=16
1c	-i-	.	1c	-i-	(>4g\	-le-	(>4b-\	-le-
.	.	.	.	.	4f\)	.	4a\)	.
.	.	.	.	.	(>4e\	-i-	(>4g\	-i-
.	.	.	.	.	4g\)	.	4b-\)	.
!	!	!	!	!	!	!	!LO:LB:g=original	!
=17	=17	=17	=17	=17	=17	=17	=17	=17
2c\	-son	.	2c\	-son	2f\	-son	2a\	-son
!LO:TX:a:t=P:problem:w źródle "f." zapisane na pięciolinii	!	!	!	!	!	!	!	!
!	!	!LO:DY:rj	!	!	!	!	!	!
!	!	!LO:DY:b:t=f.	!	!	!	!	!	!
2F\	Chri-	f	2c\	Chri-	2f\	Chri-	2a\	Chri-
!LO:LB:g=original	!	!	!	!	!	!	!	!
=18	=18	=18	=18	=18	=18	=18	=18	=18
2Bn\	-ste	.	2G/	-ste	2f\	-ste	2dd\	-ste
2c\	e-	.	2G/	e-	2e\	e-	2cc\	e-
=19	=19	=19	=19	=19	=19	=19	=19	=19
1G	-lei-	.	1G	-lei-	2e\	-le-	2cc\	-le-
.	.	.	.	.	2d\	-i-	2bn\	-i-
=20	=20	=20	=20	=20	=20	=20	=20	=20
2C/	-son	.	2G/	-son	2e\	-son	2cc\	-son
2r	.	.	2r	.	2e\	Chri-	2g\	e-
!	!	!	!LO:LB:g=original	!	!	!	!	!
=21	=21	=21	=21	=21	=21	=21	=21	=21
2r	.	.	2r	.	4e\	-ste	(>4g\	-le-
.	.	.	.	.	4f\	e-	4a\)	.
4r	.	.	4r	.	4g\	-le-	(>4b-\	-i-
4C/	Chri-	.	4G/	e-	4e\	-i-	4g\)	.
=22	=22	=22	=22	=22	=22	=22	=22	=22
(>4F\	-ste	.	4A\	-le-	2f\	-son	2a\	-son
4A\)	.	.	4c\	.	.	.	.	.
(>4G\	e-	.	4B-\	.	4r	.	4r	.
4F\)	.	.	4A\	.	4f\	e-	4cc\	e-
!	!	!	!	!	!LO:LB:g=original	!	!	!
=23	=23	=23	=23	=23	=23	=23	=23	=23
(>4E\	-le-	.	4G/	.	(>4e\	-le-	(>4cc\	-le-
4D\)	.	.	4F/	.	4f\)	.	4dd\)	.
(>4C/	-i-	.	4E/	.	(>4g\	-i-	(>4ee\	-i-
4BBn/)	.	.	4D/	-i-	4a\)	.	4ff\)	.
=24	=24	=24	=24	=24	=24	=24	=24	=24
1C	-son	.	1E	-son	1b-	-son	1gg	-son,
!	!	!	!	!	!	!	!LO:LB:g=original	!
=25	=25	=25	=25	=25	=25	=25	=25	=25
(<4C/	Chri-	.	4E/	Chri-	1g	Chri-	1ee	Chri-
4D/)	.	.	4F/	.	.	.	.	.
4E/	-ste	.	4G/	-ste	.	.	.	.
4C/	e-	.	4E/	e-	.	.	.	.
!LO:LB:g=original	!	!	!	!	!	!	!	!
=26	=26	=26	=26	=26	=26	=26	=26	=26
4F\	-le-	.	4F/	-le-	(>4a\	-ste	(>4cc\	-ste
4E\	-i-	.	4G/	-i-	4g\)	.	4b-\)	.
4F\	-son	.	4A/	-son	(>4f\	e-	(>4a\	e-
4E\	e-	.	4G/	e-	4g\)	.	4b-\)	.
=27	=27	=27	=27	=27	=27	=27	=27	=27
(>4F\	-le-	.	1c	-lei-	2f\	-le-	2a\	-le-
4A\	.	.	.	.	.	.	.	.
4c\)	.	.	.	.	2e\	-i-	2g\	-i-
4C/	-i-	.	.	.	.	.	.	.
=28	=28	=28	=28	=28	=28	=28	=28	=28
1F	-son.	.	1c	-son.	1f	-son.	1a	-son.
!LO:TX:a:t=P:problem:w źródle ta adnotacja zapisana na pięciolinii	!	!	!LO:TX:a:t=P:problem:w źródle ta adnotacja zapisana na pięciolinii	!	!LO:TX:a:t=P:problem:w źródle ta adnotacja zapisana na pięciolinii	!	!LO:TX:a:t=P:problem:w źródle ta adnotacja zapisana na pięciolinii	!
!LO:TX:b:i:t=Kyrie da Capo.	!	!	!LO:TX:b:i:t=Kyrie da \nCapo.	!	!LO:TX:b:i:t=Kyrie Da Capo.	!	!LO:TX:b:i:t=Kyrie Da Capo.	!
==	==	==	==	==	==	==	==	==
*-	*-	*-	*-	*-	*-	*-	*-	*-
!!!system-decoration: [(s1,s2,s3,s4)]
!!!RDF**kern: > = above
!!!RDF**kern: < = below
!!!EED: Antoni Szymański
!!!EST: 2021-02-04
!!!ENC:Kamil Watkowski
!!!END:2021-01-29
